SQLiteStudio3/guiSQLiteStudio/img/code_snippet.svg

<?xml version="1.0" encoding="UTF-8" standalone="no"?>
<svg
   xmlns:ooo="http://xml.openoffice.org/svg/export"
   xmlns:dc="http://purl.org/dc/elements/1.1/"
   xmlns:cc="http://creativecommons.org/ns#"
   xmlns:rdf="http://www.w3.org/1999/02/22-rdf-syntax-ns#"
   xmlns:svg="http://www.w3.org/2000/svg"
   xmlns="http://www.w3.org/2000/svg"
   xmlns:xlink="http://www.w3.org/1999/xlink"
   xmlns:sodipodi="http://sodipodi.sourceforge.net/DTD/sodipodi-0.dtd"
   xmlns:inkscape="http://www.inkscape.org/namespaces/inkscape"
   version="1.2"
   width="20mm"
   height="20mm"
   viewBox="0 0 2000 2000"
   preserveAspectRatio="xMidYMid"
   fill-rule="evenodd"
   stroke-width="28.222"
   stroke-linejoin="round"
   xml:space="preserve"
   id="svg122"
   sodipodi:docname="code_snippet.svg"
   inkscape:version="1.0 (4035a4fb49, 2020-05-01)"><metadata
   id="metadata126"><rdf:RDF><cc:Work
       rdf:about=""><dc:format>image/svg+xml</dc:format><dc:type
         rdf:resource="http://purl.org/dc/dcmitype/StillImage" /></cc:Work></rdf:RDF></metadata><sodipodi:namedview
   pagecolor="#ffffff"
   bordercolor="#666666"
   borderopacity="1"
   objecttolerance="10"
   gridtolerance="10"
   guidetolerance="10"
   inkscape:pageopacity="0"
   inkscape:pageshadow="2"
   inkscape:window-width="640"
   inkscape:window-height="480"
   id="namedview124"
   showgrid="false"
   inkscape:zoom="13.335"
   inkscape:cx="29.621297"
   inkscape:cy="37.795276"
   inkscape:current-layer="id7" />
 <defs
   class="ClipPathGroup"
   id="defs8"><linearGradient
   inkscape:collect="always"
   id="linearGradient955"><stop
     style="stop-color:#5d91c8;stop-opacity:1"
     offset="0"
     id="stop951" /><stop
     style="stop-color:#abc6e2;stop-opacity:1"
     offset="1"
     id="stop953" /></linearGradient>
  <clipPath
   id="presentation_clip_path"
   clipPathUnits="userSpaceOnUse">
   <rect
   x="0"
   y="0"
   width="2000"
   height="2000"
   id="rect2" />
  </clipPath>
  <clipPath
   id="presentation_clip_path_shrink"
   clipPathUnits="userSpaceOnUse">
   <rect
   x="2"
   y="2"
   width="1996"
   height="1996"
   id="rect5" />
  </clipPath>
 <linearGradient
   inkscape:collect="always"
   xlink:href="#linearGradient955"
   id="linearGradient957"
   x1="676.19049"
   y1="211.50795"
   x2="1089.6825"
   y2="1586.5079"
   gradientUnits="userSpaceOnUse" /></defs>
 <defs
   class="TextShapeIndex"
   id="defs12">
  <g
   ooo:slide="id1"
   ooo:id-list="id3 id4 id5 id6 id7 id8 id9"
   id="g10" />
 </defs>
 <defs
   class="EmbeddedBulletChars"
   id="defs44">
  <g
   id="bullet-char-template-57356"
   transform="scale(0.00048828125,-0.00048828125)">
   <path
   d="M 580,1141 L 1163,571 580,0 -4,571 580,1141 Z"
   id="path14" />
  </g>
  <g
   id="bullet-char-template-57354"
   transform="scale(0.00048828125,-0.00048828125)">
   <path
   d="M 8,1128 L 1137,1128 1137,0 8,0 8,1128 Z"
   id="path17" />
  </g>
  <g
   id="bullet-char-template-10146"
   transform="scale(0.00048828125,-0.00048828125)">
   <path
   d="M 174,0 L 602,739 174,1481 1456,739 174,0 Z M 1358,739 L 309,1346 659,739 1358,739 Z"
   id="path20" />
  </g>
  <g
   id="bullet-char-template-10132"
   transform="scale(0.00048828125,-0.00048828125)">
   <path
   d="M 2015,739 L 1276,0 717,0 1260,543 174,543 174,936 1260,936 717,1481 1274,1481 2015,739 Z"
   id="path23" />
  </g>
  <g
   id="bullet-char-template-10007"
   transform="scale(0.00048828125,-0.00048828125)">
   <path
   d="M 0,-2 C -7,14 -16,27 -25,37 L 356,567 C 262,823 215,952 215,954 215,979 228,992 255,992 264,992 276,990 289,987 310,991 331,999 354,1012 L 381,999 492,748 772,1049 836,1024 860,1049 C 881,1039 901,1025 922,1006 886,937 835,863 770,784 769,783 710,716 594,584 L 774,223 C 774,196 753,168 711,139 L 727,119 C 717,90 699,76 672,76 641,76 570,178 457,381 L 164,-76 C 142,-110 111,-127 72,-127 30,-127 9,-110 8,-76 1,-67 -2,-52 -2,-32 -2,-23 -1,-13 0,-2 Z"
   id="path26" />
  </g>
  <g
   id="bullet-char-template-10004"
   transform="scale(0.00048828125,-0.00048828125)">
   <path
   d="M 285,-33 C 182,-33 111,30 74,156 52,228 41,333 41,471 41,549 55,616 82,672 116,743 169,778 240,778 293,778 328,747 346,684 L 369,508 C 377,444 397,411 428,410 L 1163,1116 C 1174,1127 1196,1133 1229,1133 1271,1133 1292,1118 1292,1087 L 1292,965 C 1292,929 1282,901 1262,881 L 442,47 C 390,-6 338,-33 285,-33 Z"
   id="path29" />
  </g>
  <g
   id="bullet-char-template-9679"
   transform="scale(0.00048828125,-0.00048828125)">
   <path
   d="M 813,0 C 632,0 489,54 383,161 276,268 223,411 223,592 223,773 276,916 383,1023 489,1130 632,1184 813,1184 992,1184 1136,1130 1245,1023 1353,916 1407,772 1407,592 1407,412 1353,268 1245,161 1136,54 992,0 813,0 Z"
   id="path32" />
  </g>
  <g
   id="bullet-char-template-8226"
   transform="scale(0.00048828125,-0.00048828125)">
   <path
   d="M 346,457 C 273,457 209,483 155,535 101,586 74,649 74,723 74,796 101,859 155,911 209,963 273,989 346,989 419,989 480,963 531,910 582,859 608,796 608,723 608,648 583,586 532,535 482,483 420,457 346,457 Z"
   id="path35" />
  </g>
  <g
   id="bullet-char-template-8211"
   transform="scale(0.00048828125,-0.00048828125)">
   <path
   d="M -4,459 L 1135,459 1135,606 -4,606 -4,459 Z"
   id="path38" />
  </g>
  <g
   id="bullet-char-template-61548"
   transform="scale(0.00048828125,-0.00048828125)">
   <path
   d="M 173,740 C 173,903 231,1043 346,1159 462,1274 601,1332 765,1332 928,1332 1067,1274 1183,1159 1299,1043 1357,903 1357,740 1357,577 1299,437 1183,322 1067,206 928,148 765,148 601,148 462,206 346,322 231,437 173,577 173,740 Z"
   id="path41" />
  </g>
 </defs>
 <g
   id="g49">
  <g
   id="id2"
   class="Master_Slide">
   <g
   id="bg-id2"
   class="Background" />
   <g
   id="bo-id2"
   class="BackgroundObjects" />
  </g>
 </g>
 <g
   class="SlideGroup"
   id="g120">
  <g
   id="g118">
   <g
   id="container-id1">
    <g
   id="id1"
   class="Slide"
   clip-path="url(#presentation_clip_path)">
     <g
   class="Page"
   id="g114">
      <g
   class="com.sun.star.drawing.PolyPolygonShape"
   id="g58">
       <g
   id="id3">
        <rect
   class="BoundingBox"
   stroke="none"
   fill="none"
   x="175"
   y="1524"
   width="301"
   height="352"
   id="rect51" />
        <path
   fill="#729fcf"
   stroke="none"
   d="M 450,1850 200,1650 v -100 l 250,200 z"
   id="path53" />
        <path
   fill="none"
   stroke="#3465a4"
   stroke-width="50"
   stroke-linejoin="round"
   d="M 450,1850 200,1650 v -100 l 250,200 z"
   id="path55" />
       </g>
      </g>
      <g
   class="com.sun.star.drawing.CustomShape"
   id="g67">
       <g
   id="id4">
        <rect
   class="BoundingBox"
   stroke="none"
   fill="none"
   x="425"
   y="325"
   width="1401"
   height="1551"
   id="rect60" />
        <path
   fill="#729fcf"
   stroke="none"
   d="M 1125,1850 H 450 V 350 h 1350 v 1500 z"
   id="path62" />
        <path
   fill="none"
   stroke="#3465a4"
   stroke-width="50"
   stroke-linejoin="round"
   d="M 1125,1850 H 450 V 350 h 1350 v 1500 z"
   id="path64" />
       </g>
      </g>
      <g
   class="com.sun.star.drawing.PolyPolygonShape"
   id="g76">
       <g
   id="id5">
        <rect
   class="BoundingBox"
   stroke="none"
   fill="none"
   x="195"
   y="1595"
   width="1561"
   height="211"
   id="rect69" />
        <path
   fill="#ffffff"
   stroke="none"
   d="m 1500,1600 250,200 H 450 L 200,1600 Z"
   id="path71" />
        <path
   fill="none"
   stroke="#999999"
   stroke-width="10"
   stroke-linejoin="round"
   d="m 1500,1600 250,200 H 450 L 200,1600 Z"
   id="path73" />
       </g>
      </g>
      <g
   class="com.sun.star.drawing.PolyPolygonShape"
   id="g85">
       <g
   id="id6">
        <rect
   class="BoundingBox"
   stroke="none"
   fill="none"
   x="1494"
   y="195"
   width="262"
   height="1611"
   id="rect78" />
        <path
   fill="#ffffff"
   stroke="none"
   d="m 1500,1600 250,200 V 400 L 1500,200 Z"
   id="path80" />
        <path
   fill="none"
   stroke="#999999"
   stroke-width="10"
   stroke-linejoin="round"
   d="m 1500,1600 250,200 V 400 L 1500,200 Z"
   id="path82" />
       </g>
      </g>
      <g
   class="com.sun.star.drawing.CustomShape"
   id="g94">
       <g
   id="id7">
        <rect
   class="BoundingBox"
   stroke="none"
   fill="none"
   x="175"
   y="125"
   width="1401"
   height="1551"
   id="rect87" />
        <path
   fill="#729fcf"
   stroke="none"
   d="M 875,1650 H 200 V 150 h 1350 v 1500 z"
   id="path89"
   style="fill-opacity:1;fill:url(#linearGradient957)" />
        <path
   fill="none"
   stroke="#3465a4"
   stroke-width="50"
   stroke-linejoin="round"
   d="M 875,1650 H 200 V 150 h 1350 v 1500 z"
   id="path91" />
       </g>
      </g>
      <g
   class="com.sun.star.drawing.CustomShape"
   id="g103">
       <g
   id="id8">
        <rect
   class="BoundingBox"
   stroke="none"
   fill="none"
   x="324"
   y="507"
   width="486"
   height="764"
   id="rect96" />
        <path
   fill="#4d4d4d"
   stroke="none"
   d="m 791,702 -338,187 338,185 v 164 L 342,965 V 810 L 791,539 Z"
   id="path98" />
        <path
   fill="none"
   stroke="#4d4d4d"
   stroke-width="35"
   stroke-linejoin="miter"
   d="m 791,702 -338,187 338,185 v 164 L 342,965 V 810 L 791,539 Z"
   id="path100" />
       </g>
      </g>
      <g
   class="com.sun.star.drawing.CustomShape"
   id="g112">
       <g
   id="id9">
        <rect
   class="BoundingBox"
   stroke="none"
   fill="none"
   x="956"
   y="507"
   width="486"
   height="764"
   id="rect105" />
        <path
   fill="#4d4d4d"
   stroke="none"
   d="M 974,702 V 539 l 449,271 v 155 l -449,273 v -164 l 338,-185 z"
   id="path107" />
        <path
   fill="none"
   stroke="#4d4d4d"
   stroke-width="35"
   stroke-linejoin="miter"
   d="M 974,702 V 539 l 449,271 v 155 l -449,273 v -164 l 338,-185 z"
   id="path109" />
       </g>
      </g>
     </g>
    </g>
   </g>
  </g>
 </g>
</svg>

<?xml version="1.0" encoding="UTF-8"?>
<!DOCTYPE svg PUBLIC "-//W3C//DTD SVG 1.1//EN" "http://www.w3.org/Graphics/SVG/1.1/DTD/svg11.dtd">
<svg version="1.2" width="20mm" height="20mm" viewBox="0 0 2000 2000" preserveAspectRatio="xMidYMid" fill-rule="evenodd" stroke-width="28.222" stroke-linejoin="round" xmlns="http://www.w3.org/2000/svg" xmlns:ooo="http://xml.openoffice.org/svg/export" xmlns:xlink="http://www.w3.org/1999/xlink" xmlns:presentation="http://sun.com/xmlns/staroffice/presentation" xmlns:smil="http://www.w3.org/2001/SMIL20/" xmlns:anim="urn:oasis:names:tc:opendocument:xmlns:animation:1.0" xmlns:svg="urn:oasis:names:tc:opendocument:xmlns:svg-compatible:1.0" xml:space="preserve">
 <defs class="ClipPathGroup">
  <clipPath id="presentation_clip_path" clipPathUnits="userSpaceOnUse">
   <rect x="0" y="0" width="2000" height="2000"/>
  </clipPath>
  <clipPath id="presentation_clip_path_shrink" clipPathUnits="userSpaceOnUse">
   <rect x="2" y="2" width="1996" height="1996"/>
  </clipPath>
 </defs>
 <defs class="TextShapeIndex">
  <g ooo:slide="id1" ooo:id-list="id3 id4 id5 id6 id7 id8 id9"/>
 </defs>
 <defs class="EmbeddedBulletChars">
  <g id="bullet-char-template-57356" transform="scale(0.00048828125,-0.00048828125)">
   <path d="M 580,1141 L 1163,571 580,0 -4,571 580,1141 Z"/>
  </g>
  <g id="bullet-char-template-57354" transform="scale(0.00048828125,-0.00048828125)">
   <path d="M 8,1128 L 1137,1128 1137,0 8,0 8,1128 Z"/>
  </g>
  <g id="bullet-char-template-10146" transform="scale(0.00048828125,-0.00048828125)">
   <path d="M 174,0 L 602,739 174,1481 1456,739 174,0 Z M 1358,739 L 309,1346 659,739 1358,739 Z"/>
  </g>
  <g id="bullet-char-template-10132" transform="scale(0.00048828125,-0.00048828125)">
   <path d="M 2015,739 L 1276,0 717,0 1260,543 174,543 174,936 1260,936 717,1481 1274,1481 2015,739 Z"/>
  </g>
  <g id="bullet-char-template-10007" transform="scale(0.00048828125,-0.00048828125)">
   <path d="M 0,-2 C -7,14 -16,27 -25,37 L 356,567 C 262,823 215,952 215,954 215,979 228,992 255,992 264,992 276,990 289,987 310,991 331,999 354,1012 L 381,999 492,748 772,1049 836,1024 860,1049 C 881,1039 901,1025 922,1006 886,937 835,863 770,784 769,783 710,716 594,584 L 774,223 C 774,196 753,168 711,139 L 727,119 C 717,90 699,76 672,76 641,76 570,178 457,381 L 164,-76 C 142,-110 111,-127 72,-127 30,-127 9,-110 8,-76 1,-67 -2,-52 -2,-32 -2,-23 -1,-13 0,-2 Z"/>
  </g>
  <g id="bullet-char-template-10004" transform="scale(0.00048828125,-0.00048828125)">
   <path d="M 285,-33 C 182,-33 111,30 74,156 52,228 41,333 41,471 41,549 55,616 82,672 116,743 169,778 240,778 293,778 328,747 346,684 L 369,508 C 377,444 397,411 428,410 L 1163,1116 C 1174,1127 1196,1133 1229,1133 1271,1133 1292,1118 1292,1087 L 1292,965 C 1292,929 1282,901 1262,881 L 442,47 C 390,-6 338,-33 285,-33 Z"/>
  </g>
  <g id="bullet-char-template-9679" transform="scale(0.00048828125,-0.00048828125)">
   <path d="M 813,0 C 632,0 489,54 383,161 276,268 223,411 223,592 223,773 276,916 383,1023 489,1130 632,1184 813,1184 992,1184 1136,1130 1245,1023 1353,916 1407,772 1407,592 1407,412 1353,268 1245,161 1136,54 992,0 813,0 Z"/>
  </g>
  <g id="bullet-char-template-8226" transform="scale(0.00048828125,-0.00048828125)">
   <path d="M 346,457 C 273,457 209,483 155,535 101,586 74,649 74,723 74,796 101,859 155,911 209,963 273,989 346,989 419,989 480,963 531,910 582,859 608,796 608,723 608,648 583,586 532,535 482,483 420,457 346,457 Z"/>
  </g>
  <g id="bullet-char-template-8211" transform="scale(0.00048828125,-0.00048828125)">
   <path d="M -4,459 L 1135,459 1135,606 -4,606 -4,459 Z"/>
  </g>
  <g id="bullet-char-template-61548" transform="scale(0.00048828125,-0.00048828125)">
   <path d="M 173,740 C 173,903 231,1043 346,1159 462,1274 601,1332 765,1332 928,1332 1067,1274 1183,1159 1299,1043 1357,903 1357,740 1357,577 1299,437 1183,322 1067,206 928,148 765,148 601,148 462,206 346,322 231,437 173,577 173,740 Z"/>
  </g>
 </defs>
 <g>
  <g id="id2" class="Master_Slide">
   <g id="bg-id2" class="Background"/>
   <g id="bo-id2" class="BackgroundObjects"/>
  </g>
 </g>
 <g class="SlideGroup">
  <g>
   <g id="container-id1">
    <g id="id1" class="Slide" clip-path="url(#presentation_clip_path)">
     <g class="Page">
      <g class="com.sun.star.drawing.PolyPolygonShape">
       <g id="id3">
        <rect class="BoundingBox" stroke="none" fill="none" x="175" y="1524" width="301" height="352"/>
        <path fill="rgb(114,159,207)" stroke="none" d="M 450,1850 L 200,1650 200,1550 450,1750 450,1850 Z"/>
        <path fill="none" stroke="rgb(52,101,164)" stroke-width="50" stroke-linejoin="round" d="M 450,1850 L 200,1650 200,1550 450,1750 450,1850 Z"/>
       </g>
      </g>
      <g class="com.sun.star.drawing.CustomShape">
       <g id="id4">
        <rect class="BoundingBox" stroke="none" fill="none" x="425" y="325" width="1401" height="1551"/>
        <path fill="rgb(114,159,207)" stroke="none" d="M 1125,1850 L 450,1850 450,350 1800,350 1800,1850 1125,1850 Z"/>
        <path fill="none" stroke="rgb(52,101,164)" stroke-width="50" stroke-linejoin="round" d="M 1125,1850 L 450,1850 450,350 1800,350 1800,1850 1125,1850 Z"/>
       </g>
      </g>
      <g class="com.sun.star.drawing.PolyPolygonShape">
       <g id="id5">
        <rect class="BoundingBox" stroke="none" fill="none" x="195" y="1595" width="1561" height="211"/>
        <path fill="rgb(255,255,255)" stroke="none" d="M 1500,1600 L 1750,1800 450,1800 200,1600 1500,1600 Z"/>
        <path fill="none" stroke="rgb(153,153,153)" stroke-width="10" stroke-linejoin="round" d="M 1500,1600 L 1750,1800 450,1800 200,1600 1500,1600 Z"/>
       </g>
      </g>
      <g class="com.sun.star.drawing.PolyPolygonShape">
       <g id="id6">
        <rect class="BoundingBox" stroke="none" fill="none" x="1494" y="195" width="262" height="1611"/>
        <path fill="rgb(255,255,255)" stroke="none" d="M 1500,1600 L 1750,1800 1750,400 1500,200 1500,1600 Z"/>
        <path fill="none" stroke="rgb(153,153,153)" stroke-width="10" stroke-linejoin="round" d="M 1500,1600 L 1750,1800 1750,400 1500,200 1500,1600 Z"/>
       </g>
      </g>
      <g class="com.sun.star.drawing.CustomShape">
       <g id="id7">
        <rect class="BoundingBox" stroke="none" fill="none" x="175" y="125" width="1401" height="1551"/>
        <path fill="rgb(114,159,207)" stroke="none" d="M 875,1650 L 200,1650 200,150 1550,150 1550,1650 875,1650 Z"/>
        <path fill="none" stroke="rgb(52,101,164)" stroke-width="50" stroke-linejoin="round" d="M 875,1650 L 200,1650 200,150 1550,150 1550,1650 875,1650 Z"/>
       </g>
      </g>
      <g class="com.sun.star.drawing.CustomShape">
       <g id="id8">
        <rect class="BoundingBox" stroke="none" fill="none" x="324" y="507" width="486" height="764"/>
        <path fill="rgb(77,77,77)" stroke="none" d="M 791,702 L 453,889 791,1074 791,1238 342,965 342,810 791,539 791,702 Z"/>
        <path fill="none" stroke="rgb(77,77,77)" stroke-width="35" stroke-linejoin="miter" d="M 791,702 L 453,889 791,1074 791,1238 342,965 342,810 791,539 791,702 Z"/>
       </g>
      </g>
      <g class="com.sun.star.drawing.CustomShape">
       <g id="id9">
        <rect class="BoundingBox" stroke="none" fill="none" x="956" y="507" width="486" height="764"/>
        <path fill="rgb(77,77,77)" stroke="none" d="M 974,702 L 974,539 1423,810 1423,965 974,1238 974,1074 1312,889 974,702 Z"/>
        <path fill="none" stroke="rgb(77,77,77)" stroke-width="35" stroke-linejoin="miter" d="M 974,702 L 974,539 1423,810 1423,965 974,1238 974,1074 1312,889 974,702 Z"/>
       </g>
      </g>
     </g>
    </g>
   </g>
  </g>
 </g>
</svg>
